X:1
T:En m'oyant chanter
T:Jean de Castro
T:Source : La fleur des chansons à 3---Louvain---P.Phalèse---1574. Editor : André Vierendeels (16/09/18) Notes : Original clefs : C2, C3, C4 Original note values have been halved Editorial accidentals above the staff  
T:En m'oyant chanter 
T:©
T:©
T:©
T:©
T:©
C:Jean de Castro
Z:©
%%score [ 1 [ 2 3 ] ]
L:1/8
Q:1/4=120
M:2/2
K:C
V:1 treble nm="Soprano" snm="S"
V:2 treble-8 nm="Tenor 1" snm="T 1"
V:3 treble-8 nm="Tenor 2" snm="T 2"
V:1
 z8 | z4 G2 GG | G2 G2 c4- | c2 B2 A4 | z2 G4 F2 | E4 z2 D2- | DDEF G2 D2 | z G2 G AB c2 | %8
w: |En m'oy- ant|chan- ter, quel-|* que fois|tu te|plains qu'es-|* tre ie ne dai- gne,|qu'es- tre ie ne dai-|
 c A2 G ^FG3/2F/4E/4F | G4 z4 | z4 G4 | A2 c2 BBAG | c2 A2 GF E2 | FAAA c2 B2 | AA G2 A2 z2 | %15
w: gne Mu- si- ci- * * * *|en,|et|que ma voix me- ri- te|bien que l'on m'en- sei-|gne, voi- re que la pei-|ne ie prei- gne,|
 z A d2 B2 z G | AG/F/ E2 ^F2 G2 | z CD E2 ^F2 G- | GA z2 G4 | A2 B2 cd e2 | z2 G2 A2 B2 | c4 d4 | %22
w: d'ap- pren- dre, d'ap-|pren- * * * * dre,|ut re mi fa sol|_ la, ut|re mi fa sol la,|ut re mi|fa sol|
 e2 z c AABB | GG A2 GGAd- | d/c/B z G ccAF | ED E2 ^F4 | A3 A c2 BG | AA ^F2 AA c2 | BGAF E2 E2- | %29
w: la, que dia- ble veux tu|que i'ap- prei- gne, que dia- ble,|_ _ _ que dia- ble veux tu|que i'ap- prei- gne,|ie ne boy que trop|sans ce- la, ie ne boy|que trop sans ce- la, ie|
 EE F2 ECDF | E2 z2 z4 | AA c2 B2 G2 | z2 AA GE ^F2 | z2 G4 ^F2 | G8- | G8 |] %36
w: _ ne boy que trop sans ce-|la,|ie ne boy que trop,|ie ne boy que trop|sans ce-|la.|_|
V:2
 d2 dd d2 d2 | g3 g e2 e2- | e2 d2 c4 | z2 g4 f2 | e4 d3 d | A4 z2 B2- | BGcd ed z g | cde e2 dfe | %8
w: En m'oy- ant chan- ter,|quel- que fois, quel-|* que fois,|quel- que|fois tu te|plains qu'es-|* tre ie ne dai- gne Mu-|si- ci- en, qu'es- tre ie ne|
 A2 c>B AGAA | GG d2 z c e2 | g2 cf e3 e | f2 z c d2 f2 | e3 f ed ^c2 | d^fff g3 f | %14
w: dai- gne _ _ Mu- si- ci-|en, et que, et que|ma voix me- ri- te|bien, me- ri- te|bien que l'on m'en sei-|gne, voi- re que la pai-|
"^#" ef d2 ee a2 | f2 z d g2 e2 | z d ^c2 d2 z G | A2 B2 ^c2 d2 | e2 z2 z2 c2- | c d2 e2 ^fga | %20
w: ne ie prei- gne, d'ap- pren-|dre, d'ap- pren- dre,|d'ap- pren- dre ut|re mi fa sol|la, ut|_ re mi fa sol la,|
 z4 c d2 e- | e2 f4 g2- | g2 a2 z ^fgg |"^-natural" eefd e2 dd | ggee a3 d | ^cd3/2c/4B/4c d4 | %26
w: ut re mi|_ fa sol|_ la, que dia- ble|veux tu que i'ap- prei- gne, que|dia- ble veux tu que i'ap-|prei- * * * * gne,|
 z8 |"^-natural" d3 d f2 ec | de A2 z2 c2- | cA d2 cABd | ^c2 z e2 e g2 | fdef g2 d2- | %32
w: |ie ne boy que trop|sans ce- la, ie|_ ne boy que trop sans ce-|la, ie ne boy|que trop sans ce- la, ie|
 dd f2 ec d2- | d2 G2 A4 | z e2 d e2 e2 | d8 |] %36
w: _ ne boy que trop sans|_ ce- la,|que trop sans ce-|la.|
V:3
 z4 G2 GG | G2 G2 c4- | c2 B2 A4 | G3 G d4 | z4 z2 d2- | d2 c2 G4 | z4 G3 G | AB c3 G z A | %8
w: En m'oy- ant|chan- ter, quel-|* que fois|tu te plains,|uu|_ te plains|qu'es- tre|ie ne dai- gne Mu-|
 F2 C2 D4 | z2 G2 A2 c2 | GGAF c2 z C | F2 A2 GGDD | A3 A cd A2 | Dddd e3 d | ^cd B2 A2 z A | %15
w: si- ci- en,|et que ma|voix me- ri- te bien, et|que ma voix me- ri- te|bien que l'on m'en- sei-|gne, voi- re que la pai-|ne ie prei- gne d'ap-|
 d2 G2 z G c2 | FG A2 D2 z2 | z2 G2 A2 B2 | c2 d2 e4 | z4 z2 C2 | D2 E2 F2 G2 | A4 z2 G2 | %22
w: pren- dre, d'ap- pren-|dre, d'ap- pren- dre|ut re mi|fa sol la,|ut|re mi fa sol|la, que|
 ccAA dd G2 | c2 z2 z4 | G2 cc AAdd | A4 D2 d2- |"^-natural" dd f2 ecee | d2 D3 D A2 | GEFD A4 | %29
w: dia- ble veux tu que i'ap- prei-|gne,|que dia- ble veux tu que j'ap-|prei- gne, ie|_ ne boy que trop sans ce-|la, ie ne boy|que trop sans ce- la,|
 z8 |"^-natural" A3 A c2 BG | dd A2 z G2 G | _B2 AF GA D2 | z4 D3 D | G c2 B c2 C2 | G8 |] %36
w: |ie ne boy que trop|sans ce- la, ie ne|boy que trop sans ce- la,|ie ne|boy que trop sans ce-|la.|

